X:18
T:Frantic Rant
M:4/4
L:1/8
C:Taz Tarry
S:Copyright B.Tarry February 1992
R:Rant
Q:1/4=200
K:C
(3ABc|dBGB dBGB|cAFA cAFA|GECE GECE|DEFG ABcA|
dBGB dBGB|cAFA cAFA|GECE GECE|DEFDC2||
G,2|G,A,B,D E2C2|G,B,DEF2D2|G,B,DEG2E2|GFED G2 G,2|
G,A,B,D E2C2|G,B,DEF2D2|G,B,DEG2E2|GFED C2||

